src/assets/in-depo/Start.call.svg

<?xml version="1.0" encoding="UTF-8"?>
<svg width="24px" height="24px" viewBox="0 0 24 24" version="1.1" xmlns="http://www.w3.org/2000/svg" xmlns:xlink="http://www.w3.org/1999/xlink">
    <title>Foundations/Icons/Start.call@1x</title>
    <g id="💡-Icons" stroke="none" stroke-width="1" fill="none" fill-rule="evenodd">
        <g id="Foundations/Icons/Start.call" fill="#14232E">
            <path d="M20.8782609,15.7652174 L17.5391304,12.4347826 C17.2655302,12.1593877 16.8925373,12.0058024 16.5043478,12.0086957 L16.5043478,12.0086957 C16.1161584,12.0058024 15.7431654,12.1593877 15.4695652,12.4347826 L14.4695652,13.4347826 L14.4695652,13.4347826 C14.3034671,13.5994686 14.0356634,13.5994686 13.8695652,13.4347826 L9.86956522,9.43478261 C9.70487922,9.26868445 9.70487922,9.00088076 9.86956522,8.83478261 L9.86956522,8.83478261 L10.8695652,7.83478261 C11.4376812,7.26189258 11.4376812,6.33810742 10.8695652,5.76521739 L7.53913043,2.42608696 C6.96356103,1.87284882 6.05383027,1.87284882 5.47826087,2.42608696 L4.13043478,3.73913043 C3.3190204,4.54405737 2.86262322,5.63967358 2.86262322,6.7826087 C2.86262322,7.92554381 3.3190204,9.02116002 4.13043478,9.82608696 L13.4695652,19.173913 C14.2744922,19.9853274 15.3701084,20.4417246 16.5130435,20.4417246 C17.6559786,20.4417246 18.7515948,19.9853274 19.5565217,19.173913 L20.8956522,17.8434783 C21.4553187,17.260999 21.447597,16.3382489 20.8782609,15.7652174 Z M20.1391304,17.1043478 L18.8086957,18.4347826 C17.5234152,19.6682293 15.4939761,19.6682293 14.2086957,18.4347826 L4.86086957,9.09565217 C4.25123066,8.48758573 3.90996868,7.66104294 3.91302288,6.8 C3.91149657,5.93670127 4.25235106,5.10801833 4.86086957,4.49565217 L6.2,3.16521739 C6.27901166,3.08779812 6.38503506,3.04414142 6.49565217,3.04347826 C6.60875702,3.04456377 6.71734786,3.08800011 6.8,3.16521739 L10.1304348,6.50434783 C10.2090245,6.58266513 10.2531987,6.68904982 10.2531987,6.8 C10.2531987,6.91095018 10.2090245,7.01733487 10.1304348,7.09565217 L9.49565217,7.73043478 L7.2173913,5.42608696 C7.01328607,5.22198172 6.6823661,5.22198172 6.47826087,5.42608696 C6.27415564,5.63019219 6.27415564,5.96111216 6.47826087,6.16521739 L8.83478261,8.53913043 C8.58374006,9.09251252 8.70147371,9.74351034 9.13043478,10.173913 L13.1304348,14.173913 C13.5608375,14.6028741 14.2118353,14.7206078 14.7652174,14.4695652 L17.1391304,16.8434783 C17.3420053,17.0423354 17.6666903,17.0423354 17.8695652,16.8434783 C17.9700018,16.7467668 18.0267504,16.6133426 18.0267504,16.473913 C18.0267504,16.3344835 17.9700018,16.2010593 17.8695652,16.1043478 L15.573913,13.8 L16.2086957,13.173913 C16.2844919,13.0907384 16.3918174,13.043338 16.5043478,13.043338 C16.6168783,13.043338 16.7242037,13.0907384 16.8,13.173913 L20.1391304,16.5043478 C20.3038164,16.670446 20.3038164,16.9382497 20.1391304,17.1043478 Z" id="Shape"></path>
        </g>
    </g>
</svg>

<svg width="24" height="24" viewBox="0 0 24 24" xmlns="http://www.w3.org/2000/svg"><path d="M20.878 15.765l-3.339-3.33a1.443 1.443 0 00-1.035-.426 1.443 1.443 0 00-1.034.426l-1 1a.426.426 0 01-.6 0l-4-4a.426.426 0 010-.6l1-1a1.47 1.47 0 000-2.07L7.54 2.426a1.487 1.487 0 00-2.062 0L4.13 3.74a4.287 4.287 0 000 6.087l9.34 9.348a4.287 4.287 0 006.087 0l1.339-1.33a1.487 1.487 0 00-.018-2.079zm-.739 1.34l-1.33 1.33a3.322 3.322 0 01-4.6 0L4.86 9.095A3.226 3.226 0 013.913 6.8a3.261 3.261 0 01.948-2.304L6.2 3.166a.426.426 0 01.296-.123.452.452 0 01.304.122l3.33 3.34a.417.417 0 010 .59l-.634.635-2.279-2.304a.523.523 0 10-.739.74l2.357 2.373a1.46 1.46 0 00.295 1.635l4 4a1.46 1.46 0 001.635.296l2.374 2.373a.522.522 0 00.888-.37.513.513 0 00-.157-.369L15.574 13.8l.635-.626a.4.4 0 01.591 0l3.34 3.33a.426.426 0 010 .6z" fill="#14232E" fill-rule="evenodd"/></svg>
